content/fr/images/chapitre9/timer-off.svg

<?xml version="1.0" encoding="utf-8"?>
<!-- Generator: Adobe Illustrator 24.3.0, SVG Export Plug-In . SVG Version: 6.00 Build 0)  -->
<svg version="1.1" id="Calque_1" xmlns="http://www.w3.org/2000/svg" xmlns:xlink="http://www.w3.org/1999/xlink" x="0px" y="0px"
	 viewBox="0 0 802.7000122 1000" style="enable-background:new 0 0 802.7000122 1000;" xml:space="preserve">
<style type="text/css">
	.st0{fill:#333333;}
</style>
<path class="st0" d="M720.7000122,189.5l58.5999756,58.5l-58.5999756,60.6000061
	c54.666687,67.7333374,82,145.2000122,82,232.3999939c0,75.5333252-20.833313,144.5333862-62.5,207l-60.5-60.5
	c26.0666504-45.6000366,39.0999756-94.4333496,39.0999756-146.5c0-80.7333069-28.333374-149.3999939-85-206
	c-56.666687-56.6000061-125.3666687-84.9333344-206.1000061-85c-52.0666809,0-100.8666687,13.0333252-146.3999939,39.1000061
	L220.6999817,228.5c62.5333252-41.6666718,131.5333252-62.5,207-62.5c87.2666321,0,165.3999939,27.3333282,234.3999939,82
	L720.7000122,189.5z M552.7000122,41v84h-250V41H552.7000122z M384.8000183,392.6000061V334h84v142.6000061L384.8000183,392.6000061
	z M52.7000122,166l418,418L791,906.2999878L738.2999878,959l-103.5-105.5C572.2666626,895.166687,503.2333069,916,427.6999817,916
	c-104.1333313,0-192.6666565-36.4666138-265.6000061-109.4000244C89.166626,733.666687,52.6999626,645.1333008,52.6999741,541
	c-0.0000038-75.5333252,20.8333282-144.5333252,62.5-207L-0.0000229,218.8000031L52.7000122,166z M427.7000122,834
	c52.1333313,0,100.9666748-13.666687,146.5-41L175.8000183,394.5c-27.3333282,45.6000061-41,94.4333496-41,146.5
	c0,80.7333374,28.6333313,149.7333374,85.8999939,207S346.9666748,833.9333496,427.7000122,834z"/>
</svg>

<svg height="1000" width="802.7" xmlns="http://www.w3.org/2000/svg"><path d="m720.7 189.5l58.6 58.5-58.6 60.6q82 101.6 82 232.4 0 113.3-62.5 207l-60.5-60.5q39.1-68.4 39.1-146.5 0-121.1-85-206t-206.1-85q-78.1 0-146.4 39.1l-60.6-60.6q93.8-62.5 207-62.5 130.9 0 234.4 82z m-168-148.5v84h-250v-84h250z m-167.9 351.6v-58.6h84v142.6z m-332.1-226.6l418 418 320.3 322.3-52.7 52.7-103.5-105.5q-93.8 62.5-207.1 62.5-156.2 0-265.6-109.4t-109.4-265.6q0-113.3 62.5-207l-115.2-115.2z m375 668q78.2 0 146.5-41l-398.4-398.5q-41 68.4-41 146.5 0 121.1 85.9 207t207 86z" /></svg>
